X:16731
T:The Frog in the Well
R:Jig
A:Ireland
M:6/8
L:1/8
K:G
"Em"~E3 GFE | BGE GFD | "D"D3 {G}FED | FAD {G}FED | 
"Em"~E3 GFE | BGE {G}FED | "G"BGB "A"AFA |1 "G"GBG "Em"EB,D :|2 "G"GBG "Em"EGB || 
"Em"ege ~B3 | eBe (5fgage | "D"fdd Add| faa {b}agf| 
"Em"efe ~B3 | eBe "G"{f}gag | "Bm"fdB "A"AGF | "Em"GEE E3 :|
